public/topics/23.svg

<svg width="250" height="250" viewBox="0 0 250 250" fill="none" xmlns="http://www.w3.org/2000/svg">
<rect width="250" height="250" rx="30" fill="#0099CC"/>
<path d="M56.2 174.2C60.7333 174.467 63.7333 174.6 65.2 174.6C69.7333 174.6 73.7333 174.533 77.2 174.4C80.8 174.267 83.8667 174.133 86.4 174C92.9333 173.6 98.8 173.4 104 173.4C109.067 173.4 112.8 174.733 115.2 177.4C117.6 180.067 118.8 183.6 118.8 188C118.8 190.133 117.4 191.867 114.6 193.2C111.8 194.4 108.933 195 106 195C103.467 195 98.2 194.733 90.2 194.2C80.6 193.4 73.0667 193 67.6 193C64.6667 193 61.2 193.2 57.2 193.6C55.6 193.733 53.6667 193.867 51.4 194C49.1333 194.133 46.6 194.2 43.8 194.2C38.4667 194.2 34.4 193.467 31.6 192C28.8 190.533 27.4 187.867 27.4 184C27.4 180.667 28.7333 177.267 31.4 173.8C34.0667 170.333 37.8 166.2 42.6 161.4L47.4 156.6C49.5333 154.333 53.4667 150.467 59.2 145C68.6667 136.467 76 128.933 81.2 122.4C86.5333 115.867 89.2 109.4 89.2 103C89.2 98.8667 87.2 95.5333 83.2 93C79.3333 90.3333 74.8667 89 69.8 89C62.0667 89 56.4667 90.7333 53 94.2C49.6667 97.5333 48 102.4 48 108.8C48 110.4 47.0667 111.867 45.2 113.2C43.4667 114.4 41.2667 115 38.6 115C34.8667 115 32.2667 113.667 30.8 111C29.3333 108.333 28.6 105.067 28.6 101.2C28.6 95.0667 30.4667 89.6667 34.2 85C37.9333 80.2 43 76.4667 49.4 73.8C55.9333 71.1333 63.1333 69.8 71 69.8C76.6 69.8 82.4 71.2 88.4 74C94.5333 76.6667 99.6 80.3333 103.6 85C107.733 89.5333 109.8 94.5333 109.8 100C109.8 108.267 107.733 116.133 103.6 123.6C99.4667 131.067 94.6 137.733 89 143.6C83.5333 149.333 76.4 156.133 67.6 164C63.3333 167.6 59.5333 171 56.2 174.2ZM186.273 115C197.207 117.4 206.273 122.133 213.473 129.2C220.673 136.267 224.273 144.467 224.273 153.8C224.273 159.4 222.94 164.867 220.273 170.2C216.007 178.733 209.607 185.133 201.073 189.4C192.673 193.667 182.94 195.8 171.873 195.8C164.94 195.8 158.74 194.533 153.273 192C147.807 189.333 142.407 185.8 137.073 181.4C135.073 179.533 133.273 176.867 131.673 173.4C130.207 169.933 129.473 167.067 129.473 164.8C129.473 161.867 130.273 159.533 131.873 157.8C133.607 155.933 135.873 155 138.673 155C141.473 155 143.673 155.667 145.273 157C146.873 158.333 148.807 160.467 151.073 163.4C153.207 166.2 155.14 168.467 156.873 170.2C158.607 171.8 160.94 173.2 163.873 174.4C166.807 175.6 170.473 176.2 174.873 176.2C183.807 176.2 190.807 174 195.873 169.6C200.94 165.2 203.473 159 203.473 151C203.473 147.933 201.807 144.867 198.473 141.8C195.14 138.6 192.007 136.333 189.073 135C187.34 134.067 184.14 133.133 179.473 132.2C173.207 130.6 168.473 129.067 165.273 127.6C162.207 126 160.673 123.533 160.673 120.2C160.673 117.933 161.673 115.733 163.673 113.6C165.673 111.333 168.673 108.533 172.673 105.2C176.673 101.867 179.673 99.1333 181.673 97C183.673 94.7333 184.673 92.4667 184.673 90.2C182.14 89.5333 178.34 89.2 173.273 89.2C171.007 89.2 167.607 89.3333 163.073 89.6C159.073 89.8667 156.007 90 153.873 90C149.073 90 144.94 89.2 141.473 87.6C138.14 86 136.473 83.9333 136.473 81.4C136.473 78.6 136.74 76.4 137.273 74.8C137.807 73.0667 138.807 72 140.273 71.6C141.207 71.2 142.873 71 145.273 71C151.807 71 157.473 71.2 162.273 71.6C167.607 71.8667 171.673 72 174.473 72L191.073 71.8C204.673 71.8 211.473 75.0667 211.473 81.6C211.473 86.5333 208.94 92.1333 203.873 98.4C198.94 104.533 193.073 110.067 186.273 115Z" fill="white"/>
</svg>

<svg xmlns="http://www.w3.org/2000/svg" width="250" height="250" fill="none" viewBox="0 0 250 250"><rect width="250" height="250" fill="#09c" rx="30"/><path fill="#fff" d="M56.2 174.2q6.8.4 9 .4 6.8 0 12-.2 5.4-.2 9.2-.4 9.8-.6 17.6-.6 7.6 0 11.2 4t3.6 10.6q0 3.2-4.2 5.2-4.2 1.8-8.6 1.8-3.8 0-15.8-.8-14.4-1.2-22.6-1.2-4.4 0-10.4.6-2.4.2-5.8.4t-7.6.2q-8 0-12.2-2.2t-4.2-8q0-5 4-10.2t11.2-12.4l4.8-4.8q3.2-3.4 11.8-11.6 14.2-12.8 22-22.6 8-9.8 8-19.4 0-6.2-6-10-5.8-4-13.4-4-11.6 0-16.8 5.2-5 5-5 14.6 0 2.4-2.8 4.4-2.6 1.8-6.6 1.8-5.6 0-7.8-4t-2.2-9.8q0-9.2 5.6-16.2 5.6-7.2 15.2-11.2 9.8-4 21.6-4 8.4 0 17.4 4.2 9.2 4 15.2 11 6.2 6.8 6.2 15 0 12.4-6.2 23.6t-14.6 20q-8.2 8.6-21.4 20.4-6.4 5.4-11.4 10.2M186.273 115q16.4 3.6 27.2 14.2t10.8 24.6q0 8.4-4 16.4-6.399 12.8-19.2 19.2-12.6 6.4-29.2 6.4-10.4 0-18.6-3.8-8.199-4-16.2-10.6-3-2.8-5.4-8-2.2-5.2-2.2-8.6 0-4.4 2.4-7 2.6-2.8 6.8-2.8t6.6 2 5.8 6.4q3.2 4.2 5.8 6.8 2.6 2.4 7 4.2t11 1.8q13.401 0 21-6.6t7.6-18.6q0-4.6-5-9.2-5-4.8-9.4-6.8-2.6-1.4-9.6-2.8-9.4-2.4-14.2-4.6-4.6-2.4-4.6-7.4 0-3.4 3-6.6 3-3.4 9-8.4t9-8.2q3-3.4 3-6.8-3.8-1-11.4-1-3.399 0-10.2.4-6 .4-9.2.4-7.2 0-12.4-2.4-5-2.4-5-6.2 0-4.2.8-6.6.801-2.6 3-3.2 1.4-.6 5-.6 9.8 0 17 .6 8 .4 12.2.4l16.6-.2q20.4 0 20.4 9.8 0 7.4-7.6 16.8-7.4 9.2-17.6 16.6"/></svg>
